Adwaita++/emblems/16/vcs-update-required.svg

<svg fill="none" height="16" viewBox="0 0 16 16" width="16" xmlns="http://www.w3.org/2000/svg">
  <path d="m13.6 1h-11.2c-.7732 0-1.4.6268-1.4 1.4v11.2c0 .7732.6268 1.4 1.4 1.4h11.2c.7732 0 1.4-.6268 1.4-1.4v-11.2c0-.7732-.6268-1.4-1.4-1.4z" fill="#1a5fb4"/>
  <path d="m5.64954 6.75984c.12498-.23482.28076-.45064.46245-.64212l.8157 1.04269.25907-.20241.0268-.02094c.05039-.03856.08778-.09255.10538-.15966l.79958-3.0993c.03718-.13534-.02324-.30566-.12885-.44059-.10559-.13502-.25637-.23474-.39682-.23128l-3.2026.02753c-.06941.0009-.13078.02422-.18048.06372l-.02681.02093-.25906.2024.98716 1.26184c-.09727.09112-.1907.18607-.28011.28479-.26879.29664-.50107.62651-.69064.98265-.3835.72052-.57995 1.5258-.57133 2.34199.00861.81619.22203 1.61714.62067 2.32942.39863.7123.96974 1.313 1.66091 1.7472.69118.4342 1.48031.6879 2.29502.7378.8147.0499 1.62891-.1055 2.36792-.4521.739-.3465 1.3792-.8731 1.8617-1.5314.2387-.3254.4349-.6778.5855-1.04872.1541-.37949.2603-.77835.315-1.18747l-1.9192-.25667c-.0652.4877-.2519.95121-.5428 1.34803-.2909.39683-.67677.71423-1.12229.92313-.44549.2089-.9363.3026-1.42742.2725-.49112-.03-.96683-.183-1.38348-.4447s-.76092-.6239-1.00123-1.05325c-.24031-.42937-.36896-.91221-.37415-1.40422-.0052-.49201.11323-.97745.34441-1.41179z" fill="#f6f5f4"/>
</svg>

<svg xmlns="http://www.w3.org/2000/svg" fill="none" width="16" height="16" viewBox="0 0 16 16">
 <path fill="#1A5FB4" d="M13.6 1H2.4C1.6268 1 1 1.6268 1 2.4V13.6C1 14.3732 1.6268 15 2.4 15H13.6C14.3732 15 15 14.3732 15 13.6V2.4C15 1.6268 14.3732 1 13.6 1Z"/>
 <path fill="url(#paint0_linear)" d="M5.64954 6.75984C5.77452 6.52502 5.9303 6.3092 6.11199 6.11772L6.92769 7.16041L7.18676 6.958L7.21356 6.93706C7.26395 6.8985 7.30134 6.84451 7.31894 6.7774L8.11852 3.6781C8.1557 3.54276 8.09528 3.37244 7.98967 3.23751C7.88408 3.10249 7.7333 3.00277 7.59285 3.00623L4.39025 3.03376C4.32084 3.03466 4.25947 3.05798 4.20977 3.09748L4.18296 3.11841L3.9239 3.32081L4.91106 4.58265C4.81379 4.67377 4.72036 4.76872 4.63095 4.86744C4.36216 5.16408 4.12988 5.49395 3.94031 5.85009C3.55681 6.57061 3.36036 7.37589 3.36898 8.19208C3.37759 9.00827 3.59101 9.80922 3.98965 10.5215C4.38828 11.2338 4.95939 11.8345 5.65056 12.2687C6.34174 12.7029 7.13087 12.9566 7.94558 13.0065C8.76028 13.0564 9.57449 12.901 10.3135 12.5544C11.0525 12.2079 11.6927 11.6813 12.1752 11.023C12.4139 10.6976 12.6101 10.3452 12.7607 9.97428C12.9148 9.59479 13.021 9.19593 13.0757 8.78681L11.1565 8.53014C11.0913 9.01784 10.9046 9.48135 10.6137 9.87817C10.3228 10.275 9.93693 10.5924 9.49141 10.8013C9.04592 11.0102 8.55511 11.1039 8.06399 11.0738C7.57287 11.0438 7.09716 10.8908 6.68051 10.6291C6.26386 10.3674 5.91959 10.0052 5.67928 9.57585C5.43897 9.14648 5.31032 8.66364 5.30513 8.17163C5.29993 7.67962 5.41836 7.19418 5.64954 6.75984Z"/>
 <defs>
  <linearGradient id="paint0_linear" x1="7.452" x2="9.036" y1="14.592" y2="1.689" gradientUnits="userSpaceOnUse">
   <stop stop-color="#F6F5F4"/>
  </linearGradient>
 </defs>
</svg>
